client/public/img/misc/mouse4_icon.svg

<?xml version="1.0" encoding="UTF-8" standalone="no"?>
<svg
   width="19"
   height="26"
   viewBox="0 0 19 26"
   fill="none"
   version="1.1"
   id="svg6"
   xmlns="http://www.w3.org/2000/svg"
   xmlns:svg="http://www.w3.org/2000/svg">
  <defs
     id="defs6" />
  <path
     d="M1.43923 19.1929L2.74602 18.7783C3.06643 19.8187 3.53686 20.8336 4.13428 21.7488L2.83768 22.2852C2.72873 22.3433 2.67159 22.3516 2.58031 22.182L1.35127 19.4358C1.29314 19.2863 1.29835 19.2326 1.43923 19.1929Z"
     fill="#333333"
     id="path1" />
  <path
     d="M1.18095 14.3779H2.28608C2.26578 14.8336 2.25777 15.2782 2.25777 15.679C2.25777 16.6073 2.40158 17.5758 2.67174 18.528L1.35119 18.6572C1.2308 18.6681 1.17588 18.6549 1.17247 18.4833L0.998436 14.5735C0.994142 14.4365 1.02354 14.3851 1.18095 14.3779Z"
     fill="#FF0000"
     id="path2" />
  <path
     d="M17.118 7.8322C17.2811 8.91717 17.4538 10.0653 17.7173 11.2402H11.8818V0.265625C16.0632 0.816587 16.5286 3.91203 17.118 7.8322Z"
     fill="#333333"
     id="path3" />
  <path
     d="M11.4394 0.217584V11.2397H9.44824V0.217588C9.76061 0.191218 10.092 0.177734 10.4438 0.177734C10.7956 0.177734 11.127 0.191217 11.4394 0.217584Z"
     fill="#333333"
     id="path4" />
  <path
     d="M9.00536 0.265625V11.2402H3.16992C3.43344 10.0653 3.60607 8.91719 3.76919 7.83223C4.35861 3.91205 4.82403 0.816603 9.00536 0.265625Z"
     fill="#333333"
     id="path5" />
  <path
     d="M17.8477 11.7932C17.8385 11.7563 17.8294 11.7195 17.8205 11.6826H3.06664L3.06358 11.6952C3.05822 11.7171 3.05284 11.7391 3.04742 11.761L3.03942 11.7932C2.77696 12.8488 2.7002 14.4494 2.7002 15.6791C2.7002 19.946 5.89533 25.1754 10.4493 25.1782C15.0033 25.1754 18.1869 19.946 18.1869 15.6791C18.1869 14.4494 18.1102 12.8488 17.8477 11.7932Z"
     fill="#333333"
     id="path6" />
</svg>

<svg xmlns="http://www.w3.org/2000/svg" width="19" height="26" fill="none"><path fill="#333" d="m1.44 19.193 1.306-.415c.32 1.04.79 2.056 1.388 2.97l-1.296.537c-.11.058-.166.067-.258-.103l-1.229-2.746c-.058-.15-.053-.203.088-.243"/><path fill="red" d="M1.181 14.378h1.105c-.02.456-.028.9-.028 1.301 0 .928.144 1.897.414 2.849l-1.32.13c-.121.01-.176-.003-.18-.175l-.174-3.91c-.004-.136.026-.188.183-.195"/><path fill="#333" d="M17.118 7.832c.163 1.085.336 2.233.6 3.408h-5.836V.266c4.181.55 4.647 3.646 5.236 7.566M11.44.218V11.24H9.447V.218q.469-.04.996-.04t.995.04M9.005.266V11.24H3.17c.263-1.175.436-2.323.6-3.408C4.358 3.912 4.823.817 9.004.266m8.844 11.527q-.015-.055-.027-.11H3.066l-.003.012-.017.066-.008.032C2.777 12.85 2.7 14.45 2.7 15.68c0 4.267 3.195 9.496 7.75 9.5 4.553-.004 7.737-5.233 7.737-9.5 0-1.23-.077-2.83-.34-3.886"/></svg>
